azure-patterns/svg-book-grey.svg

<svg xmlns="http://www.w3.org/2000/svg" viewBox="0 0 27 33">
                                
                            
    <rect width="26.373" height="32.3791" fill="black" fill-opacity="0"></rect>
    <path d="M26.373 2.39741e-05V32.3792H4.05739C3.49738 32.3792 2.97172 32.2737 2.48039 32.0629C1.98907 31.8521 1.5585 31.5623 1.18869 31.1934C0.818874 30.8245 0.528306 30.395 0.316983 29.9049C0.105661 29.4148 0 28.8904 0 28.3318V4.04742C0 3.53095 0.113586 3.02766 0.340757 2.53755C0.567928 2.04744 0.869063 1.61529 1.24416 1.24112C1.61926 0.866947 2.04983 0.566554 2.53587 0.339941C3.02191 0.113331 3.52908 2.39741e-05 4.05739 2.39741e-05H26.373ZM24.3443 26.3081H4.05739C3.7721 26.3081 3.50795 26.3608 3.26493 26.4662C3.02191 26.5716 2.80794 26.7165 2.62304 26.9009C2.43813 27.0854 2.29285 27.2988 2.18718 27.5413C2.08152 27.7837 2.02869 28.0472 2.02869 28.3318C2.02869 28.6163 2.08152 28.8798 2.18718 29.1223C2.29285 29.3647 2.43813 29.5781 2.62304 29.7626C2.80794 29.947 3.02191 30.092 3.26493 30.1974C3.50795 30.3028 3.7721 30.3555 4.05739 30.3555H24.3443V26.3081ZM2.02869 24.8219C2.66266 24.4636 3.33889 24.2844 4.05739 24.2844H24.3443V2.02372H4.05739C3.81437 2.02372 3.57135 2.08432 3.32832 2.20554C3.0853 2.32675 2.8687 2.48221 2.67851 2.67193C2.48832 2.86166 2.33247 3.07773 2.21096 3.32015C2.08945 3.56257 2.02869 3.80499 2.02869 4.04742V24.8219ZM6.08608 6.07111H20.2869V12.1422H6.08608V6.07111ZM8.11477 10.1185H18.2582V8.09481H8.11477V10.1185Z" fill="#505055"></path>
</svg>

<svg xmlns="http://www.w3.org/2000/svg" viewBox="0 0 27 33"><path fill="none" d="M0 0h26.373v32.379H0z"/><path d="M26.373 0v32.38H4.057c-.56 0-1.085-.106-1.577-.317a4.098 4.098 0 0 1-2.163-2.158A3.93 3.93 0 0 1 0 28.332V4.047c0-.516.114-1.02.34-1.51a4.47 4.47 0 0 1 .904-1.296A4.516 4.516 0 0 1 2.536.34 3.56 3.56 0 0 1 4.057 0h22.316zm-2.029 26.308H4.057c-.285 0-.55.053-.792.158a2.062 2.062 0 0 0-1.078 1.075 1.957 1.957 0 0 0-.158.79c0 .285.053.549.158.791a2.057 2.057 0 0 0 1.078 1.075c.243.106.507.159.792.159h20.287v-4.048zM2.03 24.822a4.059 4.059 0 0 1 2.028-.538h20.287V2.024H4.057c-.243 0-.486.06-.729.182A2.483 2.483 0 0 0 2.211 3.32a1.61 1.61 0 0 0-.182.727v20.775zm4.057-18.75h14.2v6.07h-14.2v-6.07zm2.029 4.046h10.143V8.095H8.115v2.023z" fill="#505055"/></svg>
